X:4
T:V\aar Hambo
R:polska O
Z:1999 Brian Wilson  http://ma.ultranet.com/~baab
Z:from \AAbolaendska Spelmansl\aatar, Track B9
Z:played by Brunskaers-Maja och Aspoe-Erik
M:3/4
L:1/8
K:G
P:A
|: "G"G(B d)(G B)(d \
| "G"b)a g2 g2 \
| "D"fe dc BA \
| "G"GA Bc dB \
| "G"G(B d)(G B)(d \
| "G"b)a g2 g2 \
| "D"fe dc BA \
| "G"G2 G4 :|
P:B
|: "Em"EF GF E^D \
| "Em"EF GA B2 \
| "Am"cB AB c2 \
| "B"BA GF E^D \
| "Em"EF GF E^D \
| "Em"EF GA B2 \
| "Am"cB AG "B"FG \
| "Em"E2 E4 :|
P:C
|: "G"GA B2 B2 \
| "G" Bc d2 d2 \
| "D"d2 Bd Ac \
| "G"Bd AB B<G \
| "G"GA B2 B2 \
| "G" Bc d2 d2 \
| "D"d2 Bd AB \
| "G"G2 G4 :|
